X: 3808
T: Black Cat
R: reel
M: 4/4
K: Gmajor
|:D2|"G"G2BG "D7"D2AD|"G"G2BG cGBG|"Am"E2AE BEAE|ABAG "D7"FDEF|
"G"G2BG "D7"D2AD|"G"G2BG cGBG|"Am"E2AE BEAE|"D7"DGGF "G"G2:|
|:E2|"G"D2GD EGDE|GDEA GFED|"Am"E2AE BEAE|E2AE "D7"GFED|
"G"D2GD EGDE|GDEA GFED|"Am"E2AE BEAE|"D7"DGGF "G"G2:|

